icons/petrified.svg

<svg id="icon" style="touch-action: none;" clip-rule="evenodd" fill-rule="evenodd" stroke-linejoin="round" stroke-miterlimit="2" viewBox="0 0 500 500" xmlns="http://www.w3.org/2000/svg"><path d="m5.009 7.405-.109-1.505 1.4-.7 1.3 1.9c.1.1.3.2.4.2h.2l3.9-1.6 3 1c.1.4.1.8.1 1.2v.2h.1c.4.1.6.6.6 1.1l-5.6 1.8c-.1 0-.2.1-.2.2v.3l1.6 3.1-3.5 1.9c-.2.1-.3.3-.3.4.1.5.2 1.1.3 1.6h-.3c-2.2 0-4.1-1.9-5-4 0 0 2.4-3 2.4-3.1l-.11-1.506c.672-.031 1.21-.205 1.21-.994 0-.763-.637-1.436-1.391-1.495zm5.891 4.195 4.9-1.6v.1c-.3 1-1 1.6-1.5 1.5-.2.4-.4.8-.7 1.1-.4 2.5-2.2 5.1-4.6 5.7-.1-.4-.1-.8-.2-1.4l3.6-1.9c.2-.1.2-.3.2-.5zm-.6 2.9c0 1.3-1 0-2.3 0s-2.3 1.3-2.3 0 1-2.3 2.3-2.3 2.3 1 2.3 2.3zm-5.88-4.62.08 1.52-1.9 2.4c-.1-.3-.2-.6-.2-1-.3-.4-.5-.7-.7-1.1-.6.2-1.3-.5-1.5-1.5-.3-1-.1-1.9.5-2.1h.2v-.2c0-3.5 2.1-6.4 4.9-7.4l1.8 3.4-3.2 1.5c-.2.1-.2.2-.2.3l.096 1.822c-.518.218-.896.717-.896 1.378 0 .713.439.924 1.02.98zm7.98-.98c0 .9-.7 1-1.5 1s-1.5-.1-1.5-1 .7-1.5 1.5-1.5 1.5.7 1.5 1.5zm-4.3-2.5c-.367-.5-.733-1-1.1-1.5l1.1-.6c.1-.1.2-.1.2-.2v-.3l-1.9-3.6c.5-.1 1-.2 1.6-.2 3.3 0 6.1 2.4 6.9 5.8l-2.8-.9h-.3z" fill="#b3b3b3" transform="matrix(26.3158 0 0 26.3158 39.4736 7.8519)"/></svg>

<?xml version="1.0" encoding="UTF-8" standalone="no"?>
<!DOCTYPE svg PUBLIC "-//W3C//DTD SVG 1.1//EN" "http://www.w3.org/Graphics/SVG/1.1/DTD/svg11.dtd">
<svg width="100%" height="100%" viewBox="0 0 500 500" version="1.1" xmlns="http://www.w3.org/2000/svg" xmlns:xlink="http://www.w3.org/1999/xlink" xml:space="preserve" xmlns:serif="http://www.serif.com/" style="fill-rule:evenodd;clip-rule:evenodd;stroke-linejoin:round;stroke-miterlimit:2;">
    <g transform="matrix(26.3158,0,0,26.3158,250,257.852)">
        <g transform="matrix(1,0,0,1,-8,-9.5)">
            <path d="M5.009,7.405L4.9,5.9L6.3,5.2L7.6,7.1C7.7,7.2 7.9,7.3 8,7.3L8.2,7.3L12.1,5.7L15.1,6.7C15.2,7.1 15.2,7.5 15.2,7.9L15.2,8.1L15.3,8.1C15.7,8.2 15.9,8.7 15.9,9.2L10.3,11C10.2,11 10.1,11.1 10.1,11.2L10.1,11.5L11.7,14.6L8.2,16.5C8,16.6 7.9,16.8 7.9,16.9C8,17.4 8.1,18 8.2,18.5L7.9,18.5C5.7,18.5 3.8,16.6 2.9,14.5C2.9,14.5 5.3,11.5 5.3,11.4L5.19,9.894C5.862,9.863 6.4,9.689 6.4,8.9C6.4,8.137 5.763,7.464 5.009,7.405ZM10.9,11.6L15.8,10L15.8,10.1C15.5,11.1 14.8,11.7 14.3,11.6C14.1,12 13.9,12.4 13.6,12.7C13.2,15.2 11.4,17.8 9,18.4C8.9,18 8.9,17.6 8.8,17L12.4,15.1C12.6,15 12.6,14.8 12.6,14.6L10.9,11.6ZM10.3,14.5C10.3,15.8 9.3,14.5 8,14.5C6.7,14.5 5.7,15.8 5.7,14.5C5.7,13.2 6.7,12.2 8,12.2C9.3,12.2 10.3,13.2 10.3,14.5ZM4.42,9.88L4.5,11.4L2.6,13.8C2.5,13.5 2.4,13.2 2.4,12.8C2.1,12.4 1.9,12.1 1.7,11.7C1.1,11.9 0.4,11.2 0.2,10.2C-0.1,9.2 0.1,8.3 0.7,8.1L0.9,8.1L0.9,7.9C0.9,4.4 3,1.5 5.8,0.5L7.6,3.9L4.4,5.4C4.2,5.5 4.2,5.6 4.2,5.7L4.296,7.522C3.778,7.74 3.4,8.239 3.4,8.9C3.4,9.613 3.839,9.824 4.42,9.88ZM12.4,8.9C12.4,9.8 11.7,9.9 10.9,9.9C10.1,9.9 9.4,9.8 9.4,8.9C9.4,8 10.1,7.4 10.9,7.4C11.7,7.4 12.4,8.1 12.4,8.9ZM8.1,6.4C7.733,5.9 7.367,5.4 7,4.9L8.1,4.3C8.2,4.2 8.3,4.2 8.3,4.1L8.3,3.8L6.4,0.2C6.9,0.1 7.4,0 8,0C11.3,0 14.1,2.4 14.9,5.8L12.1,4.9L11.8,4.9L8.1,6.4Z" style="fill:rgb(179,179,179);"/>
        </g>
    </g>
</svg>
